X: 13578
T: Flying Horse, The
R: jig
M: 6/8
K: Amajor
A2c dcA|fce ecB|A2c dcA|BAF FEF|
A2c dcA|fce ecB|Abc ecB|1 A3 - AFE :|2 A3 - A2f||
fec cBA|BAc BAF|fec Bce|e3 - e2f|
fec cBA|BAc BAF|EFA BcB|A3 - A2f||
fec cBA|BAc BAF|FEC EFA|B3 - Bag|
fec cBA|BAc BAF|EFA BcB|A6||

